public/logos/Bayside.svg

<svg version="1.1" id="Layer_1" xmlns="http://www.w3.org/2000/svg" xmlns:xlink="http://www.w3.org/1999/xlink" x="0px" y="0px"
	 width="100%" viewBox="0 0 1024 576" enable-background="new 0 0 1024 576" xml:space="preserve">
<path fill="#000000" opacity="1.000000" stroke="none" 
	d="
M90.513031,313.279266 
	C90.337921,290.037231 90.184502,267.241119 90.032578,244.445007 
	C90.024811,243.279449 90.032463,242.113800 90.028763,240.948212 
	C89.988884,228.383560 89.825768,228.175751 77.332787,226.161224 
	C75.575737,225.877869 74.004150,225.539566 73.882957,223.347595 
	C73.743256,220.820847 75.523209,220.346649 77.443108,220.129379 
	C78.597054,219.998779 79.769943,220.001907 80.934311,220.002121 
	C103.080589,220.006287 125.227089,219.967896 147.373016,220.061600 
	C153.865936,220.089066 160.318878,220.777725 166.670456,222.272079 
	C182.691330,226.041321 192.071411,236.793793 192.286728,251.712570 
	C192.511673,267.297760 183.406982,278.928650 167.607330,283.229828 
	C166.981888,283.400116 166.339676,283.508850 164.567184,283.892792 
	C169.072647,285.418304 172.629547,286.451569 176.056183,287.812744 
	C190.448700,293.529999 198.331268,305.153534 198.154785,320.198090 
	C197.981491,334.969757 189.936295,346.094452 175.335876,351.503174 
	C167.479553,354.413544 159.313538,356.155945 150.937927,356.208496 
	C126.960800,356.358856 102.982262,356.312653 79.004433,356.265350 
	C77.053459,356.261505 74.192474,357.187042 73.876419,353.896088 
	C73.520966,350.194977 76.614319,350.908966 78.763062,350.594330 
	C88.346207,349.191193 89.822037,347.515320 90.030762,337.686249 
	C90.200378,329.699249 90.367058,321.712219 90.513031,313.279266 
M149.445724,343.994690 
	C158.591187,334.470459 157.752823,322.621216 156.428558,311.048767 
	C155.020874,298.747314 147.646225,291.244049 136.864258,289.440216 
	C131.127029,288.480377 130.001434,289.339355 129.981186,295.113281 
	C129.931580,309.248108 129.893616,323.383728 129.987167,337.518127 
	C130.052475,347.384186 134.895920,350.662079 144.185791,347.214600 
	C145.865509,346.591278 147.339279,345.413055 149.445724,343.994690 
M150.774216,269.080109 
	C153.577652,261.525970 153.549957,253.661545 152.455872,245.922165 
	C150.815918,234.321274 144.489197,228.375977 134.983566,228.192123 
	C131.732224,228.129227 130.043869,228.936234 130.059265,232.583862 
	C130.121048,247.225555 130.041611,261.868378 129.918869,276.509979 
	C129.888519,280.130127 131.637619,281.196350 134.922012,280.770813 
	C142.053665,279.846771 147.355347,276.368713 150.774216,269.080109 
z"/>
<path fill="#000000" opacity="1.000000" stroke="none" 
	d="
M784.622681,229.222870 
	C810.270386,244.454544 818.641235,267.680267 816.456848,295.690216 
	C814.822998,316.640991 805.877502,333.719940 787.764893,345.152924 
	C775.779358,352.718414 762.348572,355.991577 748.314392,356.178284 
	C726.663757,356.466309 705.006592,356.269318 683.352234,356.269531 
	C682.354919,356.269531 681.348755,356.254883 680.362366,356.126617 
	C678.773376,355.919952 678.096252,354.858215 678.113220,353.342834 
	C678.128174,352.010712 678.827515,351.122742 680.153503,350.909058 
	C681.300293,350.724274 682.476562,350.730194 683.631714,350.587097 
	C692.907898,349.438141 695.369629,346.849152 695.575562,337.386475 
	C695.753113,329.228149 695.635254,321.063202 695.633240,312.901184 
	C695.627563,289.581055 695.623047,266.260925 695.589722,242.940796 
	C695.586609,240.782227 695.552612,238.598785 695.239075,236.470184 
	C694.228699,229.611450 692.314453,227.680588 685.506592,226.479797 
	C683.872803,226.191605 682.190430,226.190033 680.542786,225.965973 
	C679.049683,225.762924 678.130859,224.908203 678.070557,223.323074 
	C678.010559,221.746796 678.844421,220.795013 680.314331,220.476562 
	C681.445801,220.231461 682.621155,220.044846 683.773621,220.061737 
	C707.413574,220.408218 731.070923,219.139450 754.695496,220.735870 
	C765.122681,221.440491 774.990601,224.283920 784.622681,229.222870 
M775.540405,273.047363 
	C774.351379,265.137665 772.927917,257.299011 769.820190,249.848022 
	C764.617371,237.374222 755.431580,230.158401 741.990479,228.482010 
	C736.138916,227.752213 735.193481,228.587067 735.190552,234.400284 
	C735.173462,268.050293 735.173340,301.700317 735.179382,335.350311 
	C735.179688,337.181335 735.140930,339.031219 735.374146,340.839630 
	C735.947266,345.283722 738.461731,347.738892 743.057129,347.689575 
	C749.617798,347.619232 755.445740,345.632812 760.407104,341.167603 
	C766.350220,335.818878 769.243896,328.783875 771.682434,321.463593 
	C776.850525,305.949738 776.067749,289.938965 775.540405,273.047363 
z"/>
<path fill="#000000" opacity="1.000000" stroke="none" 
	d="
M905.624878,347.616486 
	C909.725220,347.168518 913.422485,347.023071 916.985413,346.254547 
	C927.607056,343.963562 934.480225,337.079834 938.912354,327.502716 
	C940.448914,324.182343 941.690186,320.725037 943.057739,317.326813 
	C943.755798,315.592346 944.874390,314.545685 946.884766,314.958679 
	C949.029602,315.399261 949.397766,317.008789 949.128662,318.776947 
	C947.401001,330.127289 945.603394,341.466980 943.848145,352.813171 
	C943.441833,355.440094 941.906616,356.419861 939.330017,356.343597 
	C935.833496,356.240051 932.331665,356.317688 928.832092,356.316864 
	C896.835754,356.309357 864.839478,356.302460 832.843140,356.291412 
	C831.510498,356.290955 830.175781,356.289917 828.845703,356.219696 
	C827.062317,356.125580 826.074036,355.175812 826.133057,353.351501 
	C826.184875,351.748230 827.198486,351.001709 828.687683,350.802643 
	C830.334656,350.582550 832.005493,350.490784 833.630676,350.166656 
	C840.593628,348.778137 842.659241,346.435699 842.719055,339.322021 
	C842.828369,326.324341 842.785034,313.325287 842.786255,300.326813 
	C842.788147,279.829163 842.791443,259.331512 842.759521,238.833923 
	C842.744934,229.488586 840.563782,227.162949 831.180786,226.215332 
	C828.959961,225.991043 825.893555,226.544495 826.211121,222.971786 
	C826.501099,219.710434 829.523560,220.118164 831.722839,220.109756 
	C856.219543,220.016098 880.716736,220.011307 905.213745,219.987137 
	C914.879272,219.977600 924.545471,220.042282 934.209961,219.942429 
	C937.641724,219.906967 939.334595,220.940277 939.454773,224.762115 
	C939.763550,234.579407 940.477600,244.383591 940.984436,254.195343 
	C941.088684,256.213928 941.189270,258.442871 938.430237,258.828979 
	C935.896301,259.183563 935.009155,257.466644 934.383972,255.349472 
	C933.583130,252.637314 932.527405,250.001648 931.645874,247.311920 
	C927.832520,235.676453 918.992676,230.550140 907.574158,229.366547 
	C901.301453,228.716354 894.911255,229.288498 888.599060,228.901306 
	C883.823853,228.608383 882.399170,230.914703 882.415710,235.126373 
	C882.449829,243.791733 882.396973,252.457428 882.387573,261.122986 
	C882.381653,266.622345 882.630127,272.135529 882.314941,277.616669 
	C882.063110,281.996368 883.938416,283.039948 887.909912,282.839172 
	C896.466553,282.406464 902.353394,278.343140 905.322937,270.245239 
	C906.585693,266.801697 907.493713,263.264282 907.907654,259.593018 
	C908.144775,257.490417 908.230835,254.811142 911.343384,255.104568 
	C914.350586,255.388046 914.092102,258.043365 914.111206,260.153839 
	C914.185059,268.318970 914.161743,276.484955 914.170410,284.650635 
	C914.181335,294.982758 914.212402,305.314941 914.176453,315.646912 
	C914.169189,317.725403 914.708862,320.429108 911.575623,320.712891 
	C908.129211,321.025055 908.151550,318.129791 907.981445,315.877045 
	C907.677307,311.847931 906.744568,307.971924 905.466797,304.181946 
	C902.570740,295.591797 895.282593,290.870514 886.249390,291.305695 
	C883.451965,291.440521 882.384521,292.563324 882.398682,295.247772 
	C882.475159,309.744110 882.266602,324.246704 882.637573,338.734802 
	C882.831177,346.294861 884.659424,347.594238 892.163696,347.667328 
	C896.495422,347.709534 900.828064,347.648682 905.624878,347.616486 
z"/>
<path fill="#000000" opacity="1.000000" stroke="none" 
	d="
M519.234741,264.731628 
	C529.672119,268.811737 539.910095,272.399811 549.420837,277.661957 
	C563.439209,285.418121 572.740845,296.439880 573.196106,313.205444 
	C573.800720,335.473328 558.818298,353.612274 536.260010,358.202118 
	C521.318115,361.242279 506.784698,359.804077 492.632080,354.211304 
	C489.843536,353.109344 487.080627,351.936859 484.262329,350.917389 
	C479.896393,349.338043 476.423065,350.275635 474.225800,354.667236 
	C473.337830,356.442047 472.505524,358.536743 469.921539,358.052094 
	C467.061310,357.515625 467.714844,355.062836 467.709076,353.208282 
	C467.669189,340.380035 467.719208,327.553650 467.062897,314.732971 
	C466.954712,312.619965 466.078644,309.610291 469.350555,308.929138 
	C473.018402,308.165588 473.095367,311.354248 473.763428,313.663300 
	C480.021973,335.295105 493.940308,348.013916 516.647339,350.369232 
	C522.892212,351.016937 528.990601,350.003021 534.573547,347.060791 
	C545.431152,341.338745 547.495361,328.134430 539.034424,319.208862 
	C534.557556,314.486206 528.727173,311.910156 522.913635,309.419098 
	C514.647827,305.877258 506.245697,302.654724 497.962128,299.153137 
	C492.886444,297.007629 488.102997,294.273804 483.699768,290.937775 
	C470.295502,280.782227 465.996979,266.957642 469.059021,251.050842 
	C472.188324,234.794968 483.191101,224.874069 498.422791,219.917709 
	C513.696106,214.947830 528.981140,215.918274 543.805603,222.323181 
	C546.250488,223.379501 548.615051,224.620911 551.023438,225.762711 
	C556.608826,228.410751 557.434326,228.139526 560.540161,222.800812 
	C561.582642,221.008881 562.133423,218.290649 565.031494,219.053940 
	C567.893921,219.807831 567.156250,222.495483 567.166504,224.534714 
	C567.221558,235.533600 567.199341,246.533066 567.147583,257.532074 
	C567.137634,259.644562 567.479370,262.164612 564.438599,262.621552 
	C561.497925,263.063446 560.931335,260.790131 560.252747,258.667847 
	C554.503357,240.685547 542.615784,229.654984 523.756165,226.621063 
	C517.091003,225.548843 510.735687,226.717316 505.041504,230.311874 
	C496.036224,235.996628 494.839539,247.072449 502.195343,254.775436 
	C506.828186,259.627014 513.014038,261.837250 519.234741,264.731628 
z"/>
<path fill="#000000" opacity="1.000000" stroke="none" 
	d="
M371.000000,220.020477 
	C378.329285,220.019119 385.159088,219.970428 391.987549,220.045029 
	C394.260376,220.069855 397.081543,219.785202 397.073578,223.264877 
	C397.066040,226.556564 394.349884,225.956558 392.288574,226.146515 
	C391.460419,226.222809 390.622223,226.188126 389.793457,226.259979 
	C383.312561,226.821686 381.449615,229.736328 384.409515,235.646515 
	C389.478607,245.768387 394.896759,255.715668 400.183502,265.728241 
	C403.594177,272.187653 407.031952,278.632751 410.406738,284.988464 
	C412.475677,284.791931 412.713074,283.251465 413.283325,282.165131 
	C420.248413,268.896271 427.171661,255.605392 434.070038,242.301666 
	C434.833069,240.830154 435.499969,239.283417 435.997742,237.704208 
	C438.052856,231.183884 435.198242,226.949081 428.348755,226.282562 
	C426.859131,226.137619 425.352051,226.167923 423.863983,226.012329 
	C422.268524,225.845490 421.594879,224.849396 421.625244,223.269211 
	C421.653870,221.779999 422.114563,220.607788 423.737274,220.362793 
	C425.047607,220.164963 426.381836,220.038895 427.706116,220.033554 
	C437.700073,219.993164 447.694489,219.945786 457.688019,220.011154 
	C459.867188,220.025406 462.696991,219.330811 463.160706,222.780441 
	C463.580109,225.900299 461.090240,226.013321 459.024078,226.642517 
	C454.493896,228.022064 451.136627,230.974014 448.891785,235.051132 
	C442.228912,247.152328 435.675018,259.313538 429.088104,271.456512 
	C428.214844,273.066376 427.592407,274.849487 426.522369,276.309479 
	C417.910004,288.060272 415.706238,301.253937 416.832001,315.495483 
	C417.473328,323.608948 416.871429,331.813293 417.094452,339.969452 
	C417.287720,347.037750 419.240875,349.023438 426.158356,350.085236 
	C427.474396,350.287262 428.792633,350.484497 430.115936,350.627289 
	C432.100464,350.841461 434.405090,350.679047 434.227325,353.676025 
	C434.050629,356.654846 431.682190,356.294159 429.753296,356.297424 
	C411.597412,356.328278 393.441406,356.314789 375.285461,356.310913 
	C371.121246,356.310028 366.956512,356.333954 362.793091,356.271790 
	C360.994965,356.244965 358.925873,356.453217 358.812317,353.717072 
	C358.704742,351.124512 360.468506,350.858398 362.437469,350.697052 
	C364.257202,350.547974 366.076324,350.301788 367.872650,349.972443 
	C373.904999,348.866394 376.488190,346.422119 376.621094,340.336792 
	C376.901062,327.517334 376.749573,314.688599 376.800323,301.863770 
	C376.809357,299.582764 375.763092,297.701294 374.729218,295.798096 
	C364.237152,276.484375 353.793030,257.144318 343.219116,237.875488 
	C340.224731,232.418869 336.827820,227.201019 329.861542,226.162796 
	C328.127472,225.904358 327.175293,224.882401 327.222260,223.111664 
	C327.278107,221.008484 328.671234,220.190536 330.527313,220.150879 
	C334.689087,220.061951 338.853180,220.072723 343.016388,220.063309 
	C352.177582,220.042587 361.338806,220.034500 371.000000,220.020477 
z"/>
<path fill="#000000" opacity="1.000000" stroke="none" 
	d="
M322.851868,334.263672 
	C323.899567,336.764221 324.772614,338.924927 325.660248,341.079681 
	C327.683167,345.990356 330.937836,349.583710 336.376343,350.559509 
	C338.626373,350.963196 339.601288,352.035126 339.338379,354.271667 
	C339.087982,356.401550 337.434723,356.312317 335.954193,356.312714 
	C315.136658,356.318085 294.319092,356.300293 273.501556,356.276825 
	C271.530731,356.274597 269.735291,355.964447 269.853546,353.343445 
	C269.956512,351.061371 271.614166,350.897064 273.359772,350.698944 
	C286.303345,349.229767 287.142609,347.807831 282.455963,335.438599 
	C280.155609,329.367462 277.769012,323.327332 275.579254,317.216644 
	C274.618317,314.535156 273.187683,313.164429 270.140717,313.209839 
	C260.483429,313.353729 250.822632,313.312439 241.163666,313.259918 
	C238.737259,313.246735 237.025070,313.920898 236.150467,316.394379 
	C233.489914,323.918610 230.443054,331.319550 228.098953,338.938416 
	C226.034195,345.649414 228.639282,349.109894 235.492233,349.946106 
	C237.310211,350.167938 239.127151,350.399567 240.947296,350.602142 
	C242.736832,350.801270 243.624130,351.848846 243.670914,353.579346 
	C243.722198,355.475616 242.574844,356.271240 240.828125,356.271790 
	C228.671890,356.275452 216.515625,356.265717 204.359451,356.231934 
	C202.837143,356.227692 201.836533,355.496674 201.766495,353.837769 
	C201.705292,352.387726 202.033234,351.088013 203.653473,350.767853 
	C213.523453,348.817535 216.703537,341.027771 219.788345,332.854889 
	C233.248260,297.194214 246.897873,261.605164 260.379700,225.952713 
	C261.760376,222.301544 262.889008,219.304611 267.833466,219.651550 
	C272.628418,219.987991 276.850037,219.169067 279.304047,225.440826 
	C293.494263,261.706482 308.171509,297.781555 322.851868,334.263672 
M266.758270,294.662567 
	C263.108948,285.246338 259.459595,275.830078 255.810242,266.413849 
	C255.413574,266.365967 255.016891,266.318054 254.620224,266.270172 
	C250.077682,278.722076 245.535141,291.173981 240.750626,304.289185 
	C251.169022,304.289185 260.446686,304.289185 269.849976,304.289185 
	C269.652496,300.738434 267.752136,298.251526 266.758270,294.662567 
z"/>
<path fill="#000000" opacity="1.000000" stroke="none" 
	d="
M606.802856,337.783630 
	C606.821960,304.658600 606.857422,272.004608 606.838196,239.350601 
	C606.832336,229.396927 604.677246,227.123581 594.777161,226.182739 
	C592.652222,225.980804 590.017639,226.246414 590.159180,223.035034 
	C590.294800,219.958679 592.893860,220.064789 595.020264,220.060318 
	C616.345154,220.015381 637.670227,220.015579 658.995178,220.050964 
	C661.124573,220.054504 663.694031,219.896896 663.887695,222.979248 
	C664.093140,226.250198 661.474121,225.968567 659.344482,226.142120 
	C649.145264,226.973297 646.484192,229.546570 646.450012,239.822617 
	C646.343201,271.976379 646.406433,304.130798 646.460449,336.284851 
	C646.464111,338.432770 646.895020,340.586456 647.205811,342.726013 
	C647.808960,346.877869 650.195557,349.262909 654.381714,349.827515 
	C656.691956,350.139069 658.999573,350.473450 661.302429,350.835052 
	C663.084656,351.114929 663.872375,352.270752 663.787048,353.997528 
	C663.702332,355.711243 662.465393,356.144409 661.023438,356.232086 
	C660.192627,356.282623 659.358398,356.293976 658.525696,356.294006 
	C637.533813,356.294525 616.541992,356.293976 595.550110,356.281250 
	C594.386841,356.280548 593.206238,356.278351 592.064819,356.089081 
	C590.723755,355.866730 590.130920,354.835175 590.106689,353.561279 
	C590.082336,352.286530 590.639099,351.223236 591.965515,350.953766 
	C593.263428,350.690125 594.616821,350.714752 595.932129,350.519958 
	C604.950989,349.184662 606.506042,347.418732 606.802856,337.783630 
z"/>
</svg>

<svg xmlns="http://www.w3.org/2000/svg" xml:space="preserve" viewBox="0 0 1024 576"><path d="M90.513 313.28c-.175-23.243-.328-46.039-.48-68.835-.008-1.166 0-2.331-.004-3.497-.04-12.564-.203-12.772-12.696-14.787-1.757-.283-3.329-.621-3.45-2.813-.14-2.527 1.64-3.001 3.56-3.219 1.154-.13 2.327-.127 3.491-.127 22.147.004 44.293-.034 66.439.06 6.493.027 12.946.716 19.297 2.21 16.021 3.77 25.401 14.522 25.617 29.44.225 15.586-8.88 27.217-24.68 31.518-.625.17-1.267.279-3.04.663 4.506 1.525 8.063 2.559 11.49 3.92 14.392 5.717 22.274 17.34 22.098 32.385-.174 14.772-8.219 25.896-22.82 31.305-7.855 2.91-16.021 4.653-24.397 4.705-23.977.15-47.956.105-71.934.057-1.95-.003-4.812.922-5.128-2.369-.355-3.701 2.738-2.987 4.887-3.302 9.583-1.403 11.059-3.079 11.268-12.908.17-7.987.336-15.974.482-24.407m58.933 30.716c9.145-9.525 8.307-21.374 6.983-32.946-1.408-12.302-8.783-19.805-19.565-21.609-5.737-.96-6.863-.1-6.883 5.673-.05 14.135-.087 28.27.006 42.405.065 9.866 4.909 13.144 14.199 9.697 1.68-.624 3.153-1.802 5.26-3.22m1.328-74.915c2.804-7.554 2.776-15.418 1.682-23.158-1.64-11.6-7.967-17.546-17.472-17.73-3.252-.063-4.94.744-4.925 4.392.062 14.642-.017 29.284-.14 43.926-.03 3.62 1.719 4.686 5.003 4.26 7.132-.923 12.433-4.401 15.852-11.69M784.623 229.223c25.647 15.232 34.018 38.457 31.834 66.467-1.634 20.951-10.58 38.03-28.692 49.463-11.986 7.565-25.416 10.839-39.45 11.025-21.651.288-43.308.091-64.963.092-.997 0-2.003-.015-2.99-.143-1.589-.207-2.266-1.269-2.249-2.784.015-1.332.715-2.22 2.04-2.434 1.147-.185 2.324-.179 3.479-.322 9.276-1.149 11.738-3.738 11.944-13.2.177-8.159.06-16.324.057-24.486-.005-23.32-.01-46.64-.043-69.96-.003-2.159-.037-4.342-.35-6.47-1.011-6.86-2.926-8.79-9.733-9.991-1.634-.288-3.317-.29-4.964-.514-1.493-.203-2.412-1.058-2.472-2.643-.06-1.576.773-2.528 2.243-2.846 1.132-.246 2.307-.432 3.46-.415 23.64.346 47.297-.923 70.921.674 10.428.704 20.296 3.548 29.928 8.487m-9.083 43.824c-1.189-7.91-2.612-15.748-5.72-23.199-5.203-12.474-14.388-19.69-27.83-21.366-5.851-.73-6.797.105-6.8 5.918-.017 33.65-.017 67.3-.01 100.95 0 1.831-.04 3.681.194 5.49.573 4.444 3.088 6.899 7.683 6.85 6.56-.07 12.389-2.057 17.35-6.522 5.943-5.35 8.837-12.384 11.275-19.704 5.169-15.514 4.386-31.525 3.858-48.417M905.625 347.616c4.1-.447 7.797-.593 11.36-1.361 10.622-2.291 17.495-9.175 21.927-18.752 1.537-3.32 2.778-6.778 4.146-10.176.698-1.735 1.816-2.781 3.827-2.368 2.145.44 2.513 2.05 2.244 3.818-1.728 11.35-3.526 22.69-5.28 34.036-.407 2.627-1.942 3.607-4.519 3.53-3.497-.103-6.998-.025-10.498-.026q-47.995-.01-95.989-.026c-1.333 0-2.667-.001-3.997-.071-1.784-.094-2.772-1.044-2.713-2.868.052-1.604 1.065-2.35 2.555-2.55 1.647-.22 3.317-.311 4.943-.635 6.963-1.389 9.028-3.731 9.088-10.845.11-12.998.066-25.997.067-38.995.002-20.498.005-40.995-.026-61.493-.015-9.345-2.196-11.671-11.58-12.619-2.22-.224-5.286.33-4.969-3.243.29-3.262 3.313-2.854 5.512-2.862 24.497-.094 48.994-.099 73.49-.123 9.666-.01 19.332.055 28.997-.045 3.432-.035 5.125.998 5.245 4.82.309 9.817 1.023 19.622 1.53 29.433.104 2.019.204 4.248-2.555 4.634-2.534.355-3.42-1.362-4.046-3.48-.8-2.712-1.857-5.347-2.738-8.037-3.813-11.636-12.653-16.762-24.072-17.945-6.273-.65-12.663-.079-18.975-.466-4.775-.293-6.2 2.014-6.183 6.225.034 8.666-.019 17.331-.028 25.997-.006 5.5.242 11.013-.073 16.494-.252 4.38 1.623 5.423 5.595 5.222 8.557-.433 14.443-4.496 17.413-12.594 1.263-3.443 2.17-6.98 2.585-10.652.237-2.103.323-4.782 3.435-4.488 3.008.283 2.75 2.938 2.768 5.049.074 8.165.05 16.331.06 24.497.01 10.332.041 20.664.005 30.996-.007 2.078.533 4.782-2.6 5.066-3.447.312-3.424-2.583-3.595-4.836-.304-4.03-1.236-7.905-2.514-11.695-2.896-8.59-10.184-13.311-19.218-12.876-2.797.135-3.864 1.257-3.85 3.942.076 14.496-.132 28.999.239 43.487.193 7.56 2.021 8.86 9.526 8.932 4.331.043 8.664-.018 13.46-.05M519.235 264.732c10.437 4.08 20.675 7.668 30.186 12.93 14.018 7.756 23.32 18.778 23.775 35.543.605 22.268-14.378 40.407-36.936 44.997-14.942 3.04-29.475 1.602-43.628-3.99-2.788-1.103-5.551-2.275-8.37-3.295-4.366-1.579-7.839-.641-10.036 3.75-.888 1.775-1.72 3.87-4.304 3.385-2.86-.536-2.207-2.99-2.213-4.844-.04-12.828.01-25.654-.646-38.475-.108-2.113-.984-5.123 2.288-5.804 3.667-.763 3.744 2.425 4.412 4.734 6.259 21.632 20.177 34.35 42.884 36.706 6.245.648 12.344-.366 17.927-3.308 10.857-5.722 12.921-18.927 4.46-27.852-4.476-4.723-10.307-7.299-16.12-9.79-8.266-3.542-16.668-6.764-24.952-10.266-5.076-2.145-9.859-4.88-14.262-8.215-13.404-10.156-17.703-23.98-14.641-39.887 3.13-16.256 14.132-26.177 29.364-31.133 15.273-4.97 30.558-4 45.383 2.405 2.444 1.057 4.81 2.298 7.217 3.44 5.586 2.648 6.411 2.377 9.517-2.962 1.043-1.792 1.593-4.51 4.491-3.747 2.863.754 2.125 3.441 2.136 5.48.055 11 .032 22-.02 32.998-.01 2.113.332 4.633-2.708 5.09-2.941.441-3.508-1.832-4.186-3.954-5.75-17.982-17.637-29.013-36.497-32.047-6.665-1.072-13.02.096-18.714 3.69-9.006 5.686-10.202 16.761-2.847 24.464 4.633 4.852 10.819 7.062 17.04 9.957M371 220.02c7.33 0 14.16-.05 20.988.025 2.272.025 5.094-.26 5.086 3.22-.008 3.292-2.724 2.692-4.785 2.882-.829.076-1.667.041-2.496.113-6.48.562-8.343 3.476-5.383 9.387 5.069 10.121 10.487 20.069 15.774 30.081 3.41 6.46 6.848 12.905 10.223 19.26 2.069-.196 2.306-1.737 2.876-2.823a8951 8951 0 0 0 20.787-39.863c.763-1.472 1.43-3.019 1.928-4.598 2.055-6.52-.8-10.755-7.65-11.421-1.489-.145-2.996-.115-4.484-.27-1.595-.168-2.27-1.164-2.239-2.744.029-1.489.49-2.661 2.112-2.906a27.4 27.4 0 0 1 3.97-.33c9.993-.04 19.987-.087 29.981-.022 2.18.014 5.009-.68 5.473 2.77.42 3.12-2.07 3.232-4.137 3.862-4.53 1.38-7.887 4.331-10.132 8.408-6.663 12.101-13.217 24.263-19.804 36.406-.873 1.61-1.496 3.392-2.566 4.852-8.612 11.751-10.816 24.945-9.69 39.186.641 8.114.04 16.318.262 24.474.194 7.069 2.147 9.054 9.064 10.116 1.316.202 2.635.4 3.958.542 1.984.214 4.29.052 4.111 3.049-.176 2.979-2.545 2.618-4.474 2.621-18.156.031-36.312.018-54.468.014-4.164-.001-8.328.023-12.492-.04-1.798-.026-3.867.182-3.98-2.554-.108-2.592 1.656-2.859 3.624-3.02 1.82-.149 3.64-.395 5.436-.725 6.032-1.106 8.615-3.55 8.748-9.635.28-12.82.129-25.648.18-38.473.008-2.281-1.038-4.163-2.072-6.066-10.492-19.314-20.936-38.654-31.51-57.923-2.994-5.456-6.391-10.674-13.357-11.712-1.735-.259-2.687-1.28-2.64-3.051.056-2.104 1.45-2.921 3.305-2.961 4.162-.089 8.326-.078 12.49-.088 9.16-.02 18.322-.028 27.983-.043M322.852 334.264c1.048 2.5 1.92 4.66 2.808 6.816 2.023 4.91 5.278 8.504 10.716 9.48 2.25.403 3.225 1.475 2.962 3.712-.25 2.13-1.903 2.04-3.384 2.04-20.817.006-41.635-.012-62.452-.035-1.971-.002-3.767-.313-3.648-2.934.103-2.282 1.76-2.446 3.506-2.644 12.943-1.47 13.783-2.891 9.096-15.26-2.3-6.072-4.687-12.112-6.877-18.222-.96-2.682-2.391-4.053-5.438-4.007-9.658.144-19.318.102-28.977.05-2.427-.013-4.139.66-5.014 3.134-2.66 7.525-5.707 14.926-8.051 22.544-2.065 6.711.54 10.172 7.393 11.008 1.818.222 3.635.454 5.455.656 1.79.2 2.677 1.247 2.724 2.977.051 1.897-1.096 2.692-2.843 2.693-12.156.003-24.312-.006-36.469-.04-1.522-.004-2.522-.735-2.593-2.394-.06-1.45.267-2.75 1.887-3.07 9.87-1.95 13.05-9.74 16.135-17.913 13.46-35.66 27.11-71.25 40.592-106.902 1.38-3.651 2.509-6.648 7.453-6.301 4.795.336 9.017-.483 11.471 5.789 14.19 36.265 28.868 72.34 43.548 108.823m-56.094-39.601-10.948-28.25-1.19-.143-13.87 38.02h29.1c-.198-3.552-2.098-6.038-3.092-9.627M606.803 337.784c.019-33.125.054-65.78.035-98.433-.006-9.954-2.16-12.227-12.06-13.168-2.126-.202-4.76.063-4.619-3.148.136-3.076 2.735-2.97 4.861-2.975 21.325-.045 42.65-.044 63.975-.009 2.13.004 4.699-.154 4.893 2.928.205 3.271-2.414 2.99-4.544 3.163-10.199.831-12.86 3.405-12.894 13.68-.107 32.154-.044 64.309.01 96.463.004 2.148.435 4.301.746 6.441.603 4.152 2.99 6.537 7.176 7.102q3.466.465 6.92 1.007c1.783.28 2.57 1.436 2.485 3.163-.085 1.713-1.322 2.146-2.764 2.234-.83.05-1.665.062-2.497.062-20.992 0-41.984 0-62.976-.013-1.163 0-2.344-.003-3.485-.192-1.341-.222-1.934-1.254-1.958-2.528s.532-2.338 1.859-2.607c1.297-.264 2.65-.24 3.966-.434 9.019-1.335 10.574-3.101 10.87-12.736"/></svg>
